X: 46
P: Polska fr\aan Boda
O: Bengt Jonsson
R: Boda-polska
Z: John Chambers <jc@trillian.mit.edu>
M: 3/4
L: 1/8
K: D
(A \
| f2) {g}fe/f/ g>e \
| (ed) (d>F) A>d \
| (dc) (c>E) A>c \
| (cd) (dF) A>d |
| f2 {g}fe/f/ g>e \
| (ed) (d>F) A>d \
| (dc) (c>E) A>c \
| (cd) d3 :|
|: (f \
| a)>(a d'2) f>a \
| (T(3gfg) (bTg) (e2 \
| {f}e)>(d cb) a>g \
| (Tgf/g/) (a/b/)a/f/ d>f |
| {f}a>(a d'2) f>a \
| (T(3gfg) (bTg) (e2 \
| {f}e)>(d cb) a>c \
| d2 d3 :|
